X:1
T:Cappriccio 3 c-Moll
T:Capriccio 3 c-Moll
T:G. Gevasini
C:G.Gevasini
%%score ( 1 2 )
L:1/8
M:4/4
K:Eb
V:1 bass nm="Posaune" snm="Psn."
V:2 bass 
V:1
"^Preludio :""^Allegro" .C,.D,/.E,/ .F,/.G,/!<(!.=A,/.=B,/ .C/.G,/.A,/.B,/ .C/.D/.E/.F/!<)! | %1
 .G!>(!.F/.E/ .D/.C/.=B,/._A,/ .G,/.F,/.E,/.D,/!>)! .C,/.=B,,/._A,,/.G,,/ | %2
 .C,/.G,,/.C,/.E,/!<(! .D,/.=B,,/.D,/.F,/ .E,/.C,/.E,/.G,/ .F,/.D,/.F,/.A,/!<)! | %3
 .G,.G,,!<(!.C,.E, .G,.C.E.G!<)! | %4
!ff! (A/!>(!F/)(F/D/) (D/=B,/)(B,/G,/) (A,/F,/)(F,/D,/) (D,/=B,,/)(B,,/G,,/)!>)! | C,8 || %6
[K:Eb][M:4/4]"^Maestoso"[Q:1/4=100]"^Esercizio :" !>!G,2 |!f! C3 G, E,3 G, | %8
 .C,.G,,!<(!.C,.E, .G,.C.E.G!<)! |!>(! .A2 .F2 .D2 .C2!>)! | C4 =B,2 z G, | =B,3 G, D,3 G, | %12
 .=B,,.G,,!<(!.B,,.D, .G,.=B,.D.F!<)! | (F2 E2 G,2 E2) |!>(! D4 C2 z!>)! C, | (_D,2 C,2 B,,2 G,,2 | %16
 A,,).F,,.A,,.C, .F,.A,._D.F | .E(G,!>!A,G,) .D(G,!>!A,G,) | C !>!E2 !>!C2 !>!G,2 E, | %19
 D, !>!F,2 !>!D,2 !>!=B,,2 G,, |[K:Eb] (C,E,)!<(!(E,G,) (G,C)(CE)!<)! | %21
 .D!>(!.F/.E/ .D/.C/.=B,/._A,/ .G,/.F,/.E,/.D,/ .C,/.=B,,/._A,,/.G,,/!>)! | C, G,2 E, C,2 |] %23
[K:Eb][M:4/4]"^Capriccio :""^Andante Meno""_con sentimento"[Q:1/4=96] G,2 | (E3 D C3 B,) | %25
 (A,3 G, F,2) A,2 | G,2 (!>!A,>G,) D,2 (!>!A,>G,) | (G,2- G,/^F,/G,/E,/ C,2) z G, | (E3 D C3 B, | %29
 A,3 G,) .F,.A,._D.F | .E(G,^F,G,) (A,G,) (!>!E>D) | D2- D/(F/E/=B,/ C2) z C | %32
 (C>B,) !>!F,2 (C>B,) !>!F,2 | G, !>!G2 !>!E2 !>!B,2 G, | (C>B,) !>!F,2 (C>B,) !>!F,2 | %35
!<(! E,G,B,E!<)! B,2 z G, | (A,>G,) !>!D,2 (A,>G,) !>!D,2 | E, !>!E2 !>!C2 !>!B,2 E, | %38
 (E,2 (D,>E,) F,2) ^F,2 | G, !>!G,2 !>!G,2 !>!G,2 G, |[K:Eb] E2 ED C/G,/G,/G,/ CB, | %41
 A,2 A,G, F,2 F,A, |[K:Eb] G,2 A,>G, D,/=B,,/D,/G,/ A,>G, | %43
 .E,/!<(!C,/D,/E,/ F,/G,/=A,/=B,/!<)! C.E/.C/ .G,/.E,/.G,/.C/ |[K:Eb] E2 E!4!D C/G,/G,/G,/ C!5!B, | %45
 A,2 A,G, F,A,_DF |[K:Eb] E2 CE D2 =B,D | C/E/G/E/ C/G,/E,/G,/ C,!>!C"^stent." !>!C!>!C | %48
[K:Eb] C>B, F,2 C>B, F,2 | %49
 .E,/.B,,/!<(!.E,/.G,/ .B,/.E,/.G,/.B,/ .E/.G/!<)!.E/.B,/ .G,/.E,/.B,,/.G,/ | %50
[K:Eb] C>B, F,2 C>B, F,2 | .E,.F,/.G,/ .A,/.B,/.C/.!4!D/ (E/D/E/).B,/ .G,/.!5!B,/.E,/.G,/ | %52
[K:Eb] A,>G, D,2 A,>G, D,2 |!<(! E,/D,/E,/F,/ G,/=A,/=B,/C/ D/E/F/G/ _Az/!<)!_A,/ | %54
[K:Eb]!>(! .G,.G/.^F/ .=F/.E/.D/.C/ .=B,/._A,/.G,/.F,/ .E,/.D,/!>)!.C,/.=B,,/ | %55
 .D,/.G,,/.C,/.E,/"^( )" .G,/"^( )".C,/"^( )".E,/"^( )".G,/ .C"^Meno"!>!C!>!C!>!C || %56
[K:Eb]"^Cantabile"[Q:1/4=91] (C4 _D2 C2) | (C3 B, A,2) z (A, | B,3) (E, _C3) (E, | %59
 B,)!>!E!>!D!>!E .F,.D,/.E,/ .F,/.G,/.A,/.B,/ | (C4 _D2 C2) | (C>B,) (C>B,) A,2 !>!=A,2 | %62
 (B,E) (G,C) (B,A,(F,)G,) | E,(D,/E,/ F,/E,/G,/F,/) E,2 z E, | (F,2 E,2 G,2 B,2) | %65
 (B,2 A,2 _C3) B, | (!>!B,3 A,) (!>!B,3 A,) | (G,3 B, E,2) z E, | %68
[K:Eb] (_F,E,D,!<(!E, G,B,_D_F)!<)! | (_FE)!>(! A4 (A,>B,)!>)! |!<(! (_C2 =C2 _D2 =D2!<)! | %71
 E6 E>E,) |[K:Eb] C4 _D2 C2 | C3 B, A,E/D/ ._D/.C/.B,/.A,/ |[K:Eb] B,3 E, _C3 E, | %75
 .B,/(E/D/E/) .B,/.E/.G,/.B,/ .E,!<(!D,/E,/ F,/G,/A,/B,/!<)! | %76
[K:Eb] .C/(E,/D,/E,/ F,/E,/A,/C/) (_D/F,/!<(!A,/D/) E/(=A,/C/E/) | %77
 (E/_D/)(G/F/)!<)! B>A!>(! (G/F/).E/.D/ (C/B,/)!>)!.A,/.F,/ | %78
[K:Eb] (E,/D,/)!<(!.E,/.F,/ .G,/.A,/.B,/.C/ (_D/C/).B,/.C/ .D/.E/.F/.G/!<)! || %79
[K:Eb]"^Brilante"[Q:1/4=128] A.A,/.C/ .E.D/.F/ .E.A,/.C/ .E.D/.F/ | %80
 .E.A,/.C/ .E.E,/.A,/ .C.C,/.E,/ .A,(C/B,/) | (!>!A,2 G,).C/.B,/"^(    )" (!>!A,2 G,).C/.B,/ | %82
 (B,/A,/)(A,/G,/) (G,/F,/)(F,/E,/) (D,/E,/).F,/.G,/ (A,/B,/).C/._D/ | %83
 C.A,/.C/ .E.D/.F/ .E.A,/.C/ .E.D/.F/ | E.A,/.C/ .E.E,/.A,/ .C.C,/.E,/ .A,(C/B,/) | %85
[K:Eb] (!>!A,2 G,).C/.B,/ (!>!A,2 G,).C/.B,/ | %86
 (B,/A,/)(A,/G,/) (G,/F,/)(F,/E,/) (D,/E,/).F,/.G,/ (A,/B,/).C/._D/ | %87
 C.A,/.C/ .E.D/.E/ (F/D/).=B,/.G,/ (F,/D,/).=B,,/.G,,/ | %88
 C,.E,/.G,/"^( )" .C.=B,/.C/ (_D/_B,/)G,/E,/ (_D,/_B,,/).G,,/.E,/ | %89
 A,,.A,/.C/ (E/C/).A,/.E,/ .F,.B,/._D/ (F/D/).B,/.F,/ | %90
 E,.A,/.C/ (E/C/).A,/.E,/ (D,/E,/)(E,/G,/) (G,/B,/)(B,/_D/) | %91
 C.A,/.C/ .E(D/E/) F!<(!.=B,,/.D,/ (G,/=B,/).D/.F/!<)! | %92
 .E.E,/.G,/ .C(=B,/C/) _D!<(!.G,,/._B,,/ (E,/G,/)._B,/.D/!<)! | %93
 .C/(E,/A,/).C/ .E.A .F/(F,/B,/)._D/ FB | .E/(E,/A,/).C/ .E.A!>(! (G/E/)(F/_D/) (E/C/)(D/B,/)!>)! | %95
 A,2"^Meno"[Q:1/4=122] z2 z!p! (E,A,C) | (C4- C=B,DC) | (=B,2 G,)(D, =B,,D,G,B,) | %98
[K:Eb] (C4- C=B,DC) | =B,2 z (=E DB,G,B, | =A,)D, A,3 (D, =B,A, | G,)(=B,=ED B,G,D,B, | %102
 =A,)(D, A,3) D,=B,A, | G,z/(^F,/ G,)z/"^rall."(F,/ G,)z/(F,/ G,)z/G,/ || %104
[K:C][M:4/4][Q:1/4=114]!>(! E4- (3E.D.C (3.B,.C!>)!.A, | G,4- (3G,.A,.B, (3.C.D.E | %106
 !>!G4- (3G.F.E (3.D.E.F | (!>!A4 G) z!<(! (3.E,.G,.C!<)! | %108
!>(! E4- (3E"^( )".D"^( )".^C (3._B,.A,!>)!.G, | %109
 (3(F,D,)!<(!.F, (3(A,F,).A, (3(DA,).D (3.F.E.D!<)! | %110
!>(! (3.C.G.F (3.E.D.C (3.B,.A,.G, (3.F,!>)!.E,.D, |: %111
"^Allegro"[Q:1/4=120]"^( )" .C,.E,/.G,/ .C.B,/.D/ .C.E,/.G,/ .C.B,/.D/ | %112
 .C.C,/.E,/ .G,.E,/.G,/ .C.G,/.C/ .E(D/C/) | (!>!C2 B,)(!>!D/C/) (!>!C2 B,)(D/C/) | %114
!>(! (C/B,/)F/E/ D/C/B,/A,/ (G,/A,/)(F,/G,/) (E,/F,/)!>)!(D,/E,/) :| %115
"^( )" .C,.E,/.G,/ .C.G,/.C/ (E/D/).C/.B,/ (B,/A,/)(A,/^G,/) | %116
 .A,.C,/.E,/ .A,.E,/.A,/ (C/_B,/).A,/.G,/ (G,/F,/)(F,/E,/) | %117
 .A,.C,/.E,/ .A,.E,/.A,/ ((C/_B,/)).A,/.G,/ ((G,/F,/))(F,/E,/) | %118
 .F,(=B,,/C,/)!<(! .A,(E,/F,/) .C!<)!(^G,/A,/)!>(! (E/C/).A,/.^F,/!>)! | %119
 .G,/.G,,/.A,,/.B,,/ .C,/.D,/!<(!.E,/.F,/ .G,/.A,/.B,/.C/ .D/.E/.F/.G/!<)! | %120
"^( )" .C.E,/.G,/ .C.G,/.C/ (E/D/).C/.B,/ (B,/A,/)(A,/^G,/) | %121
 .A,.C,/.E,/ .A,.E,/.A,/ ((C/_B,/)).A,/.G,/ ((G,/F,/))(F,/E,/) | %122
 .F,(=B,,/C,/)!<(! .A,(E,/F,/) .C(^G,/A,/)!<)!!>(! (_E/C/).A,/.^F,/!>)! | %123
 .G,/.G,,/.A,,/.B,,/ .C,/.D,/!<(!.E,/.F,/ .G,/.A,/.B,/.C/ .D/.E/.F/.G/!<)! | %124
!>(! .C"^( )".G/"^( )".F/ .E/.D/.C/.B,/ .A,/.G,/.F,/.E,/ .D,/.C,/.B,,/.A,,/!>)! | %125
 G,,2 z G,/G,/ .^F,.G,.A,.B, | .C/.G,,/.A,,/.B,,/ .C,/.D,/.E,/.F,/ .G,/.A,/.B,/.C/ .D/.E/.F/.G/ | %127
 .G2 z .G,/.G,/ .^F,.G, .=F,.D, | .C,/.G,/.C/.E/ (F/D/).B,/.G,/ .C/.G,/.C/.E/ (F/D/).B,/.G,/ | %129
 C/(G,/B,/)(G,/ C/)(G,/D/)(G,/ E/)(G,/F/)(G,/ E/)(G,/D/)(G,/ | %130
 C) z!>(! .C/.G/.E/.C/!>)!!<(! .G,/.E/.C/.G,/!<)! .E,/.C/.G,/.E,/ | %131
 C,D,/E,/ F,/G,/A,/B,/ CD/E/ F/G/A/B/ | cGEC G,CE,G, | C,G,E,C, G,,B,,[D,E,]G, | C,8 |] %135
V:2
 x8 | x8 | x8 | x8 | x8 | x8 ||[K:Eb][M:4/4] x2 | x8 | x8 | x8 | x8 | x8 | x8 | x8 | x8 | x8 | x8 | %17
 x8 | x8 | x8 |[K:Eb] x8 | x8 | x6 |][K:Eb][M:4/4] x2 | x8 | x8 | x8 | x8 | x8 | x8 | x8 | x8 | %32
 x8 | x8 | x8 | x8 | x8 | x8 | x8 | x8 |[K:Eb] E/G,/G,/G,/ E/G,/D/G,/ x2 C/G,/B,/G,/ | %41
 A,/C,/C,/C,/ A,/C,/G,/C,/ F,/C,/C,/C,/ F,/C,/A,/F,/ | %42
[K:Eb] G,/=B,,/D,/G,/ A,/G,/^F,/G,/ x2 A,/G,/F,/G,/ | x8 | %44
[K:Eb] E/G,/G,/G,/ E/G,/D/G,/ x2 C/G,/B,/G,/ | A,/C,/C,/C,/ A,/C,/G,/C,/ F,/C,/A,/F,/ _D/A,/F/D/ | %46
[K:Eb] E/(G,/^F,/G,/) C/G,/E/G,/ D/(G,/F,/G,/) =B,/G,/D/G,/ | x8 | %48
[K:Eb] C/B,/=A,/B,/ F,B,,/B,,/ C/B,/A,/B,/ F,B,,/B,,/ | x8 | %50
[K:Eb] C/B,/=A,/B,/ F,/B,,/B,,/B,,/ C/B,/A,/B,/ F,/B,,/B,,/B,,/ | x8 | %52
[K:Eb] A,/G,/^F,/G,/ D,/=B,,/D,/=F,/ A,/G,/^F,/G,/ D,/B,,/D,/=F,/ | x8 |[K:Eb] x8 | x8 || %56
[K:Eb] x8 | x8 | x8 | x8 | x8 | x8 | x8 | x8 | x8 | x8 | x8 | x8 |[K:Eb] x8 | x8 | x8 | x8 | %72
[K:Eb] C/(E,/=D,/E,/ F,/E,/A,/C/) _D/(F,/A,/D/) C/(E,/A,/C/) | %73
 (C/B,/).G,/.E,/ (D,/E,/).G,/.B,/ A, x3 |[K:Eb] B,/E,/G,/B,/ EE, _C/E,/A,/C/ EE, | x8 |[K:Eb] x8 | %77
 x8 |[K:Eb] x8 ||[K:Eb] x8 | x8 | x8 | x8 | x8 | x8 |[K:Eb] x8 | x8 | x8 | x8 | x8 | x8 | x8 | x8 | %93
 x8 | x8 | x8 | x8 | x8 |[K:Eb] x8 | x8 | x8 | x8 | x8 | x8 ||[K:C][M:4/4] x8 | x8 | x8 | x8 | x8 | %109
 x8 | x8 |: x8 | x8 | x8 | x8 :| x8 | x8 | x8 | x8 | x8 | x8 | x8 | x8 | x8 | x8 | x8 | x8 | x8 | %128
 x8 | x8 | x8 | x8 | x8 | x8 | x8 |] %135

